X:23
T:Langstrom's Pony
S:Bernie Waugh
R:Jig
M:6/8
L:1/8
K:A Mix
|:\
"A"fed ~cAA|EAA cBA|fed ~cAe|"Bm"dBB Bcd|
"A"fed ~cAA|EAA cBA|"Em"f/^g/af "F#m"=gfe|"G"dBB Bcd:|
|:\
"A"ceA "D"dfd|"A"cee ecA|ceA efg|"Bm"~BAG Bcd|
"A"ce/e/e "D"df/f/f|"A"ce/e/e efg|"Em"f/^g/af "F#m"=gfe|"G"dBB Bcd:|
|:\
"A"Ace ~a3|ecA ecA|"G"Ace ~a3|BAG Bcd|
"D"f/^g/af "Em"=gfe|"A"fed ecG|"Em"f/^g/af "F#m"=gfe|"G"dBB Bcd:|
|:\
"A"AEA [A,2E2A2]e|"F#m"cBA ecB|"A"AEA [A,EA]B=c|"Em"BGB dcB|
"A"AEA [A,2E2A2]e|"F#m"cBA efg|"Em"f/^g/af "F#m"=gfe|"G"dBB Bcd:|

